X: 3
T: Charlie Harris's
R: polka
M: 2/4
L: 1/8
K: Dmaj
|: d>B | AF DF | EF DF | AF AB | e2 d>B |AF DF | EF DF | AF AB | d2 :||: d>A |df f>d | ef dB | AF A/B/c/d/ | ef/e/ d>A |[1 df fd | ef d>B | AF AB | d2 :|[2 df f>g | af f/e/f/g/ | af ef/e/ | d2 ||


Tune 2039	Setting 22892

